src/resources/assets/public/gallery.svg

<svg width="214" height="212" viewBox="0 0 214 212" fill="none" xmlns="http://www.w3.org/2000/svg">
<path fill-rule="evenodd" clip-rule="evenodd" d="M8.369 71.0507C2.92024 71.9524 -0.765932 77.1004 0.13571 82.5491L20.091 203.143C20.9926 208.592 26.1406 212.278 31.5894 211.376L157.046 190.616C162.495 189.715 166.181 184.567 165.279 179.118L145.324 58.5241C144.423 53.0753 139.275 49.3892 133.826 50.2908L8.369 71.0507ZM21.3958 85.2599C17.0368 85.9812 14.0879 90.0996 14.8092 94.4586L29.8702 185.475C30.0505 186.565 31.0801 187.302 32.1699 187.122L148.53 167.867C149.62 167.687 150.357 166.657 150.177 165.568L135.116 74.5509C134.394 70.1919 130.276 67.243 125.917 67.9643L21.3958 85.2599Z" fill="#2A396F"/>
<path fill-rule="evenodd" clip-rule="evenodd" d="M68.2427 8.3635C69.1473 2.91524 74.2974 -0.76805 79.7457 0.136628L205.191 20.9667C210.639 21.8714 214.322 27.0214 213.418 32.4697L193.395 153.053C192.49 158.501 187.34 162.184 181.892 161.279L151.788 156.281L148.177 131.521L181.172 136.999C182.261 137.18 183.291 136.443 183.472 135.354L198.584 44.3455C199.308 39.9869 196.361 35.8668 192.002 35.1431L87.4911 17.789C83.1324 17.0653 79.0124 20.0119 78.2887 24.3705L71.3307 66.2732L58.3115 68.172L68.2427 8.3635Z" fill="#2A396F"/>
<ellipse cx="60.0032" cy="104.658" rx="15.5" ry="15" fill="#2A396F"/>
<path d="M33.5031 147.658L42.0032 136.158L75.5032 157.158L110.003 113.158L135.003 134.158L138.503 161.658L38.4729 176.454L33.5031 147.658Z" fill="#2A396F"/>
</svg>

<svg xmlns="http://www.w3.org/2000/svg" width="214" height="212" fill="none" xmlns:v="https://vecta.io/nano"><g fill-rule="evenodd" fill="#2a396f"><path d="M8.369 71.051C2.92 71.952-.766 77.1.136 82.549l19.955 120.594a10 10 0 0 0 11.498 8.233l125.457-20.76a10 10 0 0 0 8.233-11.498L145.324 58.524a10 10 0 0 0-11.498-8.233L8.369 71.051zM21.396 85.26a8 8 0 0 0-6.587 9.199l15.061 91.016a2 2 0 0 0 2.3 1.647l116.36-19.255a2 2 0 0 0 1.647-2.299l-15.061-91.017c-.722-4.359-4.84-7.308-9.199-6.587L21.396 85.26z"/><path d="M68.243 8.364c.905-5.448 6.055-9.132 11.503-8.227l125.445 20.83c5.448.905 9.131 6.055 8.227 11.503l-20.023 120.583a10 10 0 0 1-11.503 8.226l-30.104-4.998-3.611-24.76 32.995 5.478a2 2 0 0 0 2.3-1.645l15.112-91.009a8 8 0 0 0-6.582-9.202L87.491 17.789a8 8 0 0 0-9.202 6.581l-6.958 41.903-13.019 1.899 9.931-59.808z"/></g><ellipse cx="60.003" cy="104.658" rx="15.5" ry="15" fill="#2a396f"/><path d="M33.503 147.658l8.5-11.5 33.5 21 34.5-44 25 21 3.5 27.5-100.03 14.796-4.97-28.796z" fill="#2a396f"/></svg>
